X:1
T:A Waltz with Paula
C:T. S. Macdonald
M:3/4
L:1/8
K:G
Bc | d3 e d2 | g2 f2 e2 | d2 B2 G2 | A4 Bc | d3 e d2 | g2 a2 b2 |1 d2 g2 f2 | g4 :|2 ae dc BA | G4 ||
|: de | f3 e d2 | e2 d2 ^c2 | d2 B2 G2 | A4 de | f2 a2 f2 | g2 b2 g2 |1 fe d2 ^c2 | d4 :|2 d2 g2 f2 | g4 |]
